X: 1591
T: Ann And Albert's Silver Wedding
R: jig
M: 6/8
K: Dmajor
fga fed|B2c dcB|ABA FAd|fga e2g|
fga fed|B2c dcB|ABA gfe|1 ded d2g:|2 ded d2z||
|:B2c dcB|Ade fga|ABA efg|Ade fga|
B2c dcB|Ade fga|cBA gfe|1 ded d2z:|2 ded d2g||

